icons/svg/seamark/topmark_vertical_red_rhombus.svg

<svg width="580" height="580" viewBox="0 0 580 580" fill="none" xmlns="http://www.w3.org/2000/svg">
<g clip-path="url(#clip0)">
<path opacity="0.552" d="M282.25 -1.50014C277.46 -1.40183 272.898 0.56001 269.531 3.96861L192.875 81.4686C191.176 83.1881 189.832 85.2254 188.921 87.4642C188.009 89.7029 187.547 92.0994 187.562 94.5166C187.576 96.9338 188.067 99.3245 189.005 101.552C189.944 103.78 191.312 105.801 193.031 107.5L251.969 165.812V514.531C251.969 519.413 253.908 524.094 257.36 527.546C260.812 530.998 265.494 532.937 270.375 532.937H295.375C300.257 532.937 304.938 530.998 308.39 527.546C311.842 524.094 313.781 519.413 313.781 514.531V166.594L373.219 106.5C374.918 104.78 376.262 102.743 377.173 100.504C378.085 98.2655 378.547 95.8691 378.532 93.4519C378.518 91.0346 378.027 88.6439 377.089 86.4163C376.15 84.1886 374.782 82.1676 373.063 80.4686L295.563 3.81236C293.812 2.08156 291.731 0.719594 289.445 -0.192916C287.158 -1.10543 284.712 -1.54994 282.25 -1.50014V-1.50014Z" fill="#8D8D8D"/>
<path d="M283.088 514.562V68.8223" stroke="black" stroke-width="25"/>
</g>
<defs>
<clipPath id="clip0">
<path d="M0 0H580V580H0V0Z" fill="white"/>
</clipPath>
</defs>
</svg>

<svg width="580" height="580" fill="none" version="1.1" viewBox="0 0 580 580" xmlns="http://www.w3.org/2000/svg">
 <g clip-path="url(#clip0)">
  <path d="m282.25-1.5001c-4.79 0.09831-9.352 2.0602-12.719 5.4688l-76.656 77.5c-1.699 1.7195-3.043 3.7568-3.954 5.9956-0.912 2.2387-1.374 4.6352-1.359 7.0524 0.014 2.4172 0.505 4.8079 1.443 7.0354 0.939 2.228 2.307 4.249 4.026 5.948l58.938 58.312v348.72c0 4.882 1.939 9.563 5.391 13.015s8.134 5.391 13.015 5.391h25c4.882 0 9.563-1.939 13.015-5.391s5.391-8.133 5.391-13.015v-347.94l59.438-60.094c1.699-1.72 3.043-3.757 3.954-5.996 0.912-2.2385 1.374-4.6349 1.359-7.0521-0.014-2.4173-0.505-4.808-1.443-7.0356-0.939-2.2277-2.307-4.2487-4.026-5.9477l-77.5-76.656c-1.751-1.7308-3.832-3.0928-6.118-4.0053-2.287-0.91251-4.733-1.357-7.195-1.3072z" fill="#8D8D8D" opacity=".552"/>
  <path d="m283.09 514.56v-445.74" stroke="black" stroke-width="25"/>
 </g>
 <defs>
  <clipPath id="clip0">
   <path d="M0 0H580V580H0V0Z" fill="white"/>
  </clipPath>
 </defs>
 <path d="m282.16 14.85 80.636 81.443-78.1 77.432-80.635-81.443z" fill="#ff0000"/>
</svg>
